X: 97
T: SLEEP ON MY KATHLEEN DEAR
B: O'Neill's 97
M: C
L: 1/8
Z: Transcribed by John Chambers <jc@trillian.mit.edu>
N: "Slow"
N: Missing dot in bar 8?
K:G
G2 \
|c3d cBAG|G2B/A/B/d/ agfe \
|dB AG EDEG|G4 z2D2|
|c2cd cBAG|G2B/A/B/d/ e2ge \
|dB AG EDEG|G4 z2 :|
|: e \
|fefg fedB|d2eg g3f \
|fege edge|dB c/B/A/G/ ED ze|
|fefg e2g2|G2Bd e2agfe \
|1 dB AG EDEG|G6 z \
:|2 dB AG FEc/B/ c/B/A/G/|G6 z||
